!!!!SEGMENT: Div3001-Fors_seulement--Bologna_Q19
!!!id: Div3001
!!!SMS: Bologna Q19
!!!AGN: Secular work
!!!voices: 5
!!!COM: Antoine Divitis
!!!OTL: Fors seulement (Bologna Q19)
**kern	**kern	**kern	**kern	**kern
*part5	*part4	*part3	*part2	*part1
*staff5	*staff4	*staff3	*staff2	*staff1
*I"Bassus	*I"Tenor II	*I"Tenor I	*I"Altus	*I"Superius
*I'B	*I'T. II	*I'T. I	*I'A	*I'S
*clefF4	*clefGv2	*clefGv2	*clefGv2	*clefG2
*k[b-]	*k[b-]	*k[b-]	*k[b-]	*k[b-]
*F:	*F:	*F:	*F:	*F:
*M2/1	*M2/1	*M2/1	*M2/1	*M2/1
*met(C|)	*met(C|)	*met(C|)	*met(C)	*met(C|)
!!Section: Fors seulement
!!!OMD: Fors seulement
!!primary-mensuration: met(C|)
=1	=1	=1	=1	=1
0r	1D	0r	[0d	0r
.	2G	.	.	.
.	[2G	.	.	.
=2	=2	=2	=2	=2
0r	2G]	1D	0d]	0r
.	2F	.	.	.
.	1B-y	2G	.	.
.	.	[2G	.	.
=3	=3	=3	=3	=3
1D	1A	2G]	0d	1d
.	.	2F	.	.
2BB-y	2.D	1B-y	.	2g
2GG	.	.	.	[2g
.	4E	.	.	.
=4	=4	=4	=4	=4
1D	1F	1A	0d	2g]
.	.	.	.	2f
2GG	1G	2r	.	1b-y
[2G	.	2G	.	.
=5	=5	=5	=5	=5
2G]	1D	1A	[0d	1a
2F	.	.	.	.
1G	1r	2B-y	.	1r
.	.	[2c	.	.
=6	=6	=6	=6	=6
1r	1G	2c]	1d]	0r
.	.	2BnXi	.	.
1C	1E	1c	2c	.
.	.	.	2B-y	.
=7	=7	=7	=7	=7
2.D	2.F	0F	[0A	1a
4C	4E	.	.	.
4D	4F	.	.	2a
4E	4G	.	.	.
[2F	[2A	.	.	2a
=8	=8	=8	=8	=8
4F]	4A]	0r	0A]	1.a
4E	4G	.	.	.
4D	4F	.	.	.
4C	4E	.	.	.
1D	1F	.	.	.
.	.	.	.	4g
.	.	.	.	4f
=9	=9	=9	=9	=9
0C	1.G	1r	0c	2e
.	.	.	.	2c
.	.	1G	.	[1cc
.	2G	.	.	.
=10	=10	=10	=10	=10
0GG	2.G	0B-y	0d	2cc]
.	.	.	.	4b-y
.	8FL	.	.	4a
.	8EJ	.	.	.
.	2D	.	.	1b-y
.	[2G	.	.	.
=11	=11	=11	=11	=11
0C	4G]	1G	0e	0cc
.	4F	.	.	.
.	4E	.	.	.
.	4D	.	.	.
.	2E	1c	.	.
.	2C	.	.	.
=12	=12	=12	=12	=12
0D	0F	2B-y	0f	2r
.	.	4A	.	1dd
.	.	4G	.	.
.	.	1A	.	.
.	.	.	.	2cc
=13	=13	=13	=13	=13
0GG	2D	2B-y	[0g	2b-y
.	2E	1c	.	2a
.	1D	.	.	2.g
.	.	2BnXi	.	.
.	.	.	.	4f
=14	=14	=14	=14	=14
2r	1C	1c	1g]	1e
2C	.	.	.	.
2D	1r	2A	1f	1d
2BB-y	.	2B-y	.	.
=15	=15	=15	=15	=15
1C	0r	2G	1e	1c
.	.	2c	.	.
1r	.	2d	1d	1f
.	.	2B-y	.	.
=16	=16	=16	=16	=16
2r	2r	1c	0c	0e
1C	1G	.	.	.
.	.	1r	.	.
2AA	2A	.	.	.
=17	=17	=17	=17	=17
2BB-y	2F	2r	0r	1d
2GG	1G	2B-y	.	.
1AA	.	2c	.	1c
.	2F#i	2A	.	.
=18	=18	=18	=18	=18
1GG	1G	2B-y	0d	2r
.	.	2G	.	1g
1r	1D	1A	.	.
.	.	.	.	2f
=19	=19	=19	=19	=19
0r	[0E-X	1G	0B-y	2.g
.	.	.	.	4f
.	.	2r	.	4g
.	.	.	.	4a
.	.	2G	.	[2b-y
=20	=20	=20	=20	=20
0r	0E-]	1B-y	0G	4b-]
.	.	.	.	4a
.	.	.	.	4g
.	.	.	.	4f
.	.	1c	.	1g
=21	=21	=21	=21	=21
1D	0D	1d	[0A	1f
2D	.	2d	.	1a
2D	.	2d	.	.
=22	=22	=22	=22	=22
2.D	0r	1A	0A]	2a
.	.	.	.	2a
8CL	.	.	.	.
8BB-yJ	.	.	.	.
1AA	.	1c	.	2.a
.	.	.	.	8gL
.	.	.	.	8fJ
=23	=23	=23	=23	=23
1C	1G	1c	0G	1e
1C	2G	1G	.	[1g
.	2G	.	.	.
=24	=24	=24	=24	=24
0GG	2.G	2r	0d	0g_
.	.	1c	.	.
.	8FL	.	.	.
.	8EJ	.	.	.
.	2D	.	.	.
.	2G	2B-y	.	.
=25	=25	=25	=25	=25
1C	1C	2.c	0e	1g]
.	.	8B-yL	.	.
.	.	8AJ	.	.
1C	1G	2G	.	1g
.	.	2c	.	.
=26	=26	=26	=26	=26
1D	1F	2A	0f	2r
.	.	2.F	.	1a
1F	1A	.	.	.
.	.	4G	.	.
.	.	4A	.	4g
.	.	4F	.	4f
=27	=27	=27	=27	=27
0C	2.G	0c	0g	2e
.	.	.	.	1f
.	4F	.	.	.
.	1G	.	.	.
.	.	.	.	2e
=28	=28	=28	=28	=28
1r	1F	2F	0a	0f
.	.	2D	.	.
1D	2r	2D	.	.
.	2D	2D	.	.
=29	=29	=29	=29	=29
[0GG	2D	1G	[0b-y	2r
.	2D	.	.	2.g
.	1G	2r	.	.
.	.	.	.	4f
.	.	[2G	.	4g
.	.	.	.	4a
=30	=30	=30	=30	=30
0GG]	2r	4G]	0b-_	2b-y
.	.	4F	.	.
.	2.G	4G	.	2g
.	.	4A	.	.
.	.	4B-y	.	2r
.	4F	4A	.	.
.	4G	4B-y	.	[2g
.	4A	4c	.	.
=31	=31	=31	=31	=31
0r	4B-y	2d	0b-]	4g]
.	4A	.	.	4f
.	4G	2.c	.	1f
.	4F	.	.	.
.	1G	.	.	.
.	.	4A	.	.
.	.	4B-y	.	2e
.	.	4c	.	.
=32	=32	=32	=32	=32
2.D	1.F	1d	0a	2.f
4E	.	.	.	4g
1F	.	2.A	.	4a
.	.	.	.	4b-y
.	4E	.	.	[2cc
.	4D	4B-y	.	.
=33	=33	=33	=33	=33
1.C	2E	1c	[0g	2cc]
.	2C	.	.	4b-y
.	.	.	.	4a
.	[1G	1c	.	2.g
4BB-y	.	.	.	.
4AA	.	.	.	4a
=34	=34	=34	=34	=34
2.GG	2G]	2B-y	1g]	4b-y
.	.	.	.	4cc
.	4F	1d	.	1b-y
4AA	4E	.	.	.
2BB-y	1D	.	2f	.
2C	.	4c	2e	4a
.	.	4B-y	.	4g
=35	=35	=35	=35	=35
2D	1r	2A	[0f	0f
1BB-y	.	1d	.	.
.	[1F	.	.	.
2AA	.	[2c	.	.
=36	=36	=36	=36	=36
1BB-y	2F]	4c]	0f_	1r
.	.	4B-y	.	.
.	2G	1B-y	.	.
1F	1A	.	.	1cc
.	.	2A	.	.
=37	=37	=37	=37	=37
1BB-y	1F	2B-y	0f_	1dd
.	.	1B-y	.	.
1r	2r	.	.	2dd
.	2F	2A	.	[2cc
=38	=38	=38	=38	=38
0r	2D	1d	0f]	4cc]
.	.	.	.	4b-y
.	2BB-y	.	.	1b-y
.	1F	1c	.	.
.	.	.	.	2a
=39	=39	=39	=39	=39
1D	[0BB-y	1B-y	0r	1b-y
2BB-y	.	[1d	.	2r
[2D	.	.	.	[2f
=40	=40	=40	=40	=40
2D]	1BB-]	1d]	0f	2f]
4C	.	.	.	2g
4BB-y	.	.	.	.
1AA	1C	1c	.	1a
=41	=41	=41	=41	=41
0GG	1D	2B-y	0g	1.b-y
.	.	2G	.	.
.	2r	1B-y	.	.
.	2D	.	.	4a
.	.	.	.	4g
=42	=42	=42	=42	=42
0r	2D	2.A	0a	2f
.	2E	.	.	2g
.	.	4G	.	.
.	1F	1c	.	1a
=43	=43	=43	=43	=43
2r	0G	2B-y	[0b-y	[0d
1GG	.	1d	.	.
2AA	.	2c	.	.
=44	=44	=44	=44	=44
1BB-y	0r	2B-y	1b-]	1d]
.	.	2d	.	.
1C	.	2.c	2a	1e
.	.	.	2g	.
.	.	4B-y	.	.
=45	=45	=45	=45	=45
2D	2r	2A	[0f	1d
2.BB-y	1B-y	1d	.	.
.	.	.	.	1d
4C	.	.	.	.
4D	2B-y	2d	.	.
4E	.	.	.	.
=46	=46	=46	=46	=46
2F	2A	2c	0f_	2r
2BB-y	2B-y	1d	.	1dd
1BB-y	4BB-y	.	.	.
.	4C	.	.	.
.	4D	4c	.	2dd
.	4E	4B-y	.	.
=47	=47	=47	=47	=47
0r	2F	2A	0f]	2cc
.	1BB-y	1B-y	.	1dd
.	2C	4A	.	4cc
.	.	4G	.	4b-y
=48	=48	=48	=48	=48
0r	0D	2.F	0f	2a
.	.	.	.	2d
.	.	4G	.	.
.	.	2A	.	1d
.	.	2F	.	.
=49	=49	=49	=49	=49
1C	2r	1c	[0g	1e-X
.	2C	.	.	.
2BB-y	2D	2r	.	2d
[2C	2C	[2c	.	[2e-i
=50	=50	=50	=50	=50
2C]	2E	2c]	0g]	2e-]
4BB-y	2F	2d	.	4d
4AA	.	.	.	4c
1GG	1G	1e	.	1B-y
=51	=51	=51	=51	=51
1FF	2r	2.f	[0a	2.c
.	2.A	.	.	.
.	.	8eL	.	4d
.	.	8dJ	.	.
1r	.	2c	.	2e
.	4G	.	.	.
.	4F	[2d	.	[2f
.	4E	.	.	.
=52	=52	=52	=52	=52
0r	4D	2d]	0a]	2f]
.	4E	.	.	.
.	4F	4c	.	4e
.	4D	4B-y	.	4d
.	2A	2c	.	2e
.	2D	2d	.	2f
=53	=53	=53	=53	=53
0GG	1.G	2B-y	0g	1d
.	.	2G	.	.
.	.	2.B-y	.	[1dd
.	4F	.	.	.
.	4E	4c	.	.
=54	=54	=54	=54	=54
0BB-y	1.D	1d	0f	2dd]
.	.	.	.	2cc
.	.	1D	.	2b-y
.	2F	.	.	2a
=55	=55	=55	=55	=55
[0C	1C	1r	[0e	1g
.	[1G	1G	.	[1cc
=56	=56	=56	=56	=56
1C]	1G]	1.c	0e]	2cc]
.	.	.	.	2b-y
1C	1E	.	.	2a
.	.	2B-y	.	2g
=57	=57	=57	=57	=57
1.D	0F	2A	[0dl	2f
.	.	2G	.	2e
.	.	2F	.	[1d
2C	.	4E	.	.
.	.	4D	.	.
=58	=58	=58	=58	=58
2BB-y	1D	1.d	0d_	1d]
2AA	.	.	.	.
[1GG	1D	.	.	[1dd
.	.	2c	.	.
=59	=59	=59	=59	=59
0GG]	1.G	2B-y	0d_	2dd]
.	.	2A	.	2cc
.	.	1G	.	2b-y
.	4F	.	.	4a
.	4E	.	.	4g
=60	=60	=60	=60	=60
[0Dl	2.D	2A	0d_	[0fl
.	.	1B-y	.	.
.	4E	.	.	.
.	2F	.	.	.
.	2D	4A	.	.
.	.	4G	.	.
=61	=61	=61	=61	=61
0D]	0Fl	0Al	0d]	0f]
=62||	=62||	=62||	=62||	=62||
*M2/1	*M2/1	*M2/1	*M2/1	*M2/1
*met(C|)	*met(C|)	*met(C|)	*met(C)	*met(C|)
!!section: Qui n'est douleur
!!!OMD: Qui n'est douleur
2.F	0r	0r	[0f	1cc
4G	.	.	.	.
2A	.	.	.	2cc
[2B-y	.	.	.	[2dd
=63	=63	=63	=63	=63
2B-]	0r	0r	0f]	2dd]
4A	.	.	.	4cc
4G	.	.	.	4b-y
2A	.	.	.	2cc
[2B-y	.	.	.	[2dd
=64	=64	=64	=64	=64
4B-]	2.G	1d	0g	4dd]
4A	.	.	.	4cc
4G	.	.	.	4b-y
4F	4A	.	.	4a
2G	2B-y	2d	.	1g
2C	[2c	[2e	.	.
=65	=65	=65	=65	=65
1C	2c]	2e]	0g	0r
.	4B-y	4d	.	.
.	4A	4c	.	.
1r	2B-y	2d	.	.
.	2c	2e	.	.
=66	=66	=66	=66	=66
1r	0F	2c	0f	0r
.	.	1d	.	.
2.D	.	.	.	.
.	.	4c	.	.
4E	.	4B-y	.	.
=67	=67	=67	=67	=67
2F	1r	2A	0d	0r
2.G	.	2.B-y	.	.
.	1G	.	.	.
4F	.	4A	.	.
4E	.	2B-y	.	.
4D	.	.	.	.
=68	=68	=68	=68	=68
0C	4G	1.c	[0e	1r
.	4F	.	.	.
.	4E	.	.	.
.	4D	.	.	.
.	1C	.	.	2.g
.	.	4B-y	.	.
.	.	4A	.	4a
=69	=69	=69	=69	=69
0r	1r	1G	0e]	2b-y
.	.	.	.	2.cc
.	1C	1c	.	.
.	.	.	.	4b-y
.	.	.	.	4a
.	.	.	.	4g
=70	=70	=70	=70	=70
2.D	2.F	2A	0d	1.f
.	.	2B-y	.	.
4E	4G	.	.	.
2F	2A	2A	.	.
[2G	[2B-y	2G	.	2d
=71	=71	=71	=71	=71
2G]	2B-]	0d	0B-y	0g
4F	4A	.	.	.
4E	4G	.	.	.
1D	1F	.	.	.
=72	=72	=72	=72	=72
1C	2G	2r	[0c	0r
.	2.C	2G	.	.
2AA	.	2.c	.	.
.	4D	.	.	.
[2C	[2E	.	.	.
.	.	4B-y	.	.
=73	=73	=73	=73	=73
4C]	4E]	4A	0c]	0r
4BB-y	4D	4G	.	.
4AA	1D	1G	.	.
4GG	.	.	.	.
1AA	.	.	.	.
.	2C	2F#i	.	.
=74	=74	=74	=74	=74
0GG	1D	0G	[0B-y	1d
.	[1G	.	.	2d
.	.	.	.	[2g
=75	=75	=75	=75	=75
1BB-y	1G]	1d	1B-]	4g]
.	.	.	.	4f
.	.	.	.	2d
1C	1E	2.c	2A	1e
.	.	.	2G	.
.	.	4B-y	.	.
=76	=76	=76	=76	=76
2D	1F	2A	0F	0d
2.BB-y	.	1d	.	.
.	1D	.	.	.
4C	.	.	.	.
4D	.	4c	.	.
4E	.	4B-y	.	.
=77	=77	=77	=77	=77
2F	0r	2A	0r	1r
2BB-y	.	1B-y	.	.
1F	.	.	.	1cc
.	.	2A	.	.
=78	=78	=78	=78	=78
0BB-y	2r	1B-y	[0f	1.dd
.	2.BB-y	.	.	.
.	.	1d	.	.
.	4C	.	.	.
.	4D	.	.	4cc
.	4E	.	.	4b-y
=79	=79	=79	=79	=79
0r	2F	2c	0f]	2a
.	2BB-y	2B-y	.	1b-y
.	1F	1c	.	.
.	.	.	.	2a
=80	=80	=80	=80	=80
2r	1BB-y	2B-y	0d	4b-y
.	.	.	.	4a
2.GG	.	2G	.	1b-y
.	2r	1B-y	.	.
4AA	.	.	.	.
4BB-y	[2D	.	.	4a
4C	.	.	.	4g
=81	=81	=81	=81	=81
2D	2D]	2A	0d	2f
2GG	2E	2G	.	1g
1D	2F	1A	.	.
.	[2D	.	.	2f#i
=82	=82	=82	=82	=82
1.GG	2D]	2G	[0B-y	1g
.	1G	1B-y	.	.
.	.	.	.	[1d
[2BB-y	4F	4A	.	.
.	4E	4G	.	.
=83	=83	=83	=83	=83
2BB-]	1.D	1F	0B-]	2d]
4AA	.	.	.	1f
4GG	.	.	.	.
2.BB-y	.	2r	.	.
.	4C	2F	.	4e
4AA	4BB-y	.	.	4d
=84	=84	=84	=84	=84
0FF	1.C	2.c	[0A	2.f
.	.	4B-y	.	4e
.	.	4A	.	1c
.	.	4G	.	.
.	[2F	[2A	.	.
=85	=85	=85	=85	=85
0r	2F]	4A]	1A]	0f
.	.	4G	.	.
.	2E	1G	.	.
.	1D	.	1B-y	.
.	.	2F	.	.
=86	=86	=86	=86	=86
1r	0C	2.G	0c	2e
.	.	.	.	2c
.	.	4F	.	.
1C	.	2G	.	1e
.	.	2A	.	.
=87	=87	=87	=87	=87
2BB-y	0r	1.B-y	0d	0d
1GG	.	.	.	.
[2G	.	4A	.	.
.	.	4G	.	.
=88	=88	=88	=88	=88
2G]	0r	1A	1c	1r
2F#i	.	.	.	.
1G	.	1G	1B-y	2r
.	.	.	.	[2g
=89	=89	=89	=89	=89
0D	1r	[0d	0A	2g]
.	.	.	.	4f#i
.	.	.	.	4e
.	1D	.	.	1f#i
=90	=90	=90	=90	=90
1.GG	2G	0d]	0r	1.g
.	1B-y	.	.	.
2AA	2A	.	.	[2e
=91	=91	=91	=91	=91
1BB-y	2G	1.G	[0G	4e]
.	.	.	.	4d
.	2F	.	.	1d
1C	1E	.	.	.
.	.	2A	.	2c
=92	=92	=92	=92	=92
1GG	2D	1B-y	0G]	1d
.	2G	.	.	.
1C	2E	1c	.	1r
.	2C	.	.	.
=93	=93	=93	=93	=93
0r	1.G	2G	[0B-y	1.d
.	.	1B-y	.	.
.	4F	4A	.	2e
.	4E	4G	.	.
=94	=94	=94	=94	=94
0r	1D	1F	1B-]	2f
.	.	.	.	2d
.	1E	1G	1c	1g
=95	=95	=95	=95	=95
1r	1D	2A	0d	0f
.	.	2.F	.	.
1D	1F	.	.	.
.	.	4G	.	.
.	.	4A	.	.
.	.	4F	.	.
=96	=96	=96	=96	=96
2.C	2.E	1c	0e	1g
8BB-yL	8DL	.	.	.
8AAJ	8CJ	.	.	.
2GG	2G	2B-y	.	1g
2C	[2C	[2c	.	.
=97	=97	=97	=97	=97
[0FF	2C]	4c]	[0f	1.a
.	.	4B-y	.	.
.	1F	4A	.	.
.	.	4G	.	.
.	.	1F	.	.
.	4E	.	.	2g
.	4D	.	.	.
=98	=98	=98	=98	=98
0FF]	0C	0c	1f]	2f
.	.	.	.	4e
.	.	.	.	4d
.	.	.	2e	1c
.	.	.	2d	.
=99	=99	=99	=99	=99
0F	2r	2A	[0c	1r
.	2.F	2.c	.	.
.	.	.	.	[1f
.	4G	4B-y	.	.
.	[2A	4A	.	.
.	.	4G	.	.
=100	=100	=100	=100	=100
2.F	4A]	2A	1c]	0f]
.	4G	.	.	.
.	1G	1c	.	.
4E	.	.	.	.
1D	.	.	1d	.
.	2F	2BnXi	.	.
=101	=101	=101	=101	=101
2C	2G	2c	1e	2e
2E	2C	2G	.	2c
1D	2F	1A	1f	[1d
.	[2D	.	.	.
=102	=102	=102	=102	=102
0GG	2D]	2.G	[0g	2d]
.	2.G	.	.	2c
.	.	4A	.	.
.	.	4B-y	.	2B-y
.	4F	4c	.	.
.	4E	[2d	.	2A
.	4D	.	.	.
=103	=103	=103	=103	=103
1r	1E	2d]	1g]	1G
.	.	2c#i	.	.
[1BB-y	2.D	1d	2f	[1f
.	.	.	2e	.
.	4E	.	.	.
=104	=104	=104	=104	=104
1BB-]	4F	1B-y	1d	1f]
.	4G	.	.	.
.	1F	.	.	.
2FF	.	2.A	1c	1r
[2F	4E	.	.	.
.	4D	4G	.	.
=105	=105	=105	=105	=105
4F]	1D	4A	0f	0r
4E	.	4B-y	.	.
4D	.	1c	.	.
4C	.	.	.	.
1D	2r	.	.	.
.	2D	2BnXi	.	.
=106	=106	=106	=106	=106
1C	2G	1c	1e	0r
.	1A	.	.	.
1D	.	1A	[1d	.
.	4G	.	.	.
.	4F	.	.	.
=107	=107	=107	=107	=107
0AA	4E	1.A	1d]	1r
.	4D	.	.	.
.	2F	.	.	.
.	1E	.	1c#i	[1a
.	.	2G	.	.
=108	=108	=108	=108	=108
[0D	1D	2F	[0dl	2a]
.	.	2E	.	2g
.	[1A	1D	.	2f
.	.	.	.	2e
=109	=109	=109	=109	=109
0D_	2A]	1.d	0d_	2d
.	2G	.	.	2a
.	2.F	.	.	2b-y
.	.	2c	.	[2a
.	4E	.	.	.
=110	=110	=110	=110	=110
0D]	2D	2B-y	0d_	4a]
.	.	.	.	4g
.	2E	4A	.	1g
.	.	4G	.	.
.	1F	1A	.	.
.	.	.	.	2f#i
=111	=111	=111	=111	=111
0GGl	0Dl	0Gl	0d]	0gl
==	==	==	==	==
*-	*-	*-	*-	*-
!!!system-decoration: s1,s2,s3,s4,s5
!!!RDF**kern: i = editorial accidental
!!!RDF**kern: l = terminal long
!!!ENC: Max Blistain
!!!END: 2026/03/03
!!!EED: Benjamin Ory
!!!EEV: 2026/03/09
!!!YEC: Copyright 2026 Benjamin Ory, All Rights Reserved
!!!ONB: Translated from MusicXML on 2026/03/09
